digitransit-component/packages/digitransit-component-icon/src/assets/search-bus-stop-default.svg

<svg xmlns="http://www.w3.org/2000/svg" width="24" height="24" fill="none" viewBox="0 0 32 32">
 <rect width="3" height="8" x="14.5" y="22" fill="#333" rx="1.5"/>
 <circle cx="16" cy="13" r="11" fill="#007ac9"/>
 <path fill="#007ac9" d="M8 7a2 2 0 0 1 2-2h12a2 2 0 0 1 2 2v12a2 2 0 0 1-2 2H10a2 2 0 0 1-2-2z"/>
 <path fill="#fff" d="M20.68 7.02c-1.6-.2-3.06-.3-4.66-.3-1.66 0-3.1.08-4.68.3-.48.06-.76.34-.76.76v9.36c0 .3.22.5.42.56l.6.1v1.26c0 .14.12.24.28.24h.96c.12 0 .24-.1.24-.24v-1.12c.78.1 1.84.14 2.9.14 1.08 0 2.18-.04 2.94-.14v1.12c0 .14.14.24.26.24h.96c.16 0 .28-.1.28-.24V17.8l.6-.1c.22-.06.42-.24.42-.56V7.78c0-.42-.28-.7-.76-.76m-.1 7.24c0 .26-.1.4-.42.44-1.14.2-2.64.4-4.1.4-1.54 0-3-.18-4.16-.44-.32-.06-.44-.18-.44-.44V8.38c0-.26.12-.44.44-.44l8.26.04c.32 0 .42.18.42.44zm-8.26 2.58c-.3-.02-.54-.26-.54-.54.02-.26.26-.5.54-.5s.52.24.52.5c0 .3-.24.54-.52.54m7.3 0a.56.56 0 0 1-.52-.54c.02-.26.26-.5.52-.5.28 0 .52.24.52.5 0 .3-.24.54-.52.54"/>
</svg>

<svg width="24" height="24" viewBox="0 0 32 32" fill="none" xmlns="http://www.w3.org/2000/svg">
    <rect x="14.5" y="22" width="3" height="8" rx="1.5" fill="#333333"/>
    <circle cx="16" cy="13" r="11" fill="#007AC9"/>
    <path d="M8 7C8 5.89543 8.89543 5 10 5H22C23.1046 5 24 5.89543 24 7V19C24 20.1046 23.1046 21 22 21H10C8.89543 21 8 20.1046 8 19V7Z" fill="#007AC9"/>
    <path d="M20.68 7.02C19.08 6.82 17.62 6.72 16.02 6.72C14.36 6.72 12.92 6.8 11.34 7.02C10.86 7.08 10.58 7.36 10.58 7.78V17.14C10.58 17.44 10.8 17.64 11 17.7L11.6 17.8V19.06C11.6 19.2 11.72 19.3 11.88 19.3H12.84C12.96 19.3 13.08 19.2 13.08 19.06V17.94C13.86 18.04 14.92 18.08 15.98 18.08C17.06 18.08 18.16 18.04 18.92 17.94V19.06C18.92 19.2 19.06 19.3 19.18 19.3H20.14C20.3 19.3 20.42 19.2 20.42 19.06V17.8L21.02 17.7C21.24 17.64 21.44 17.46 21.44 17.14V7.78C21.44 7.36 21.16 7.08 20.68 7.02ZM20.58 14.26C20.58 14.52 20.48 14.66 20.16 14.7C19.02 14.9 17.52 15.1 16.06 15.1C14.52 15.1 13.06 14.92 11.9 14.66C11.58 14.6 11.46 14.48 11.46 14.22V8.38C11.46 8.12 11.58 7.94 11.9 7.94L20.16 7.98C20.48 7.98 20.58 8.16 20.58 8.42V14.26ZM12.32 16.84C12.02 16.82 11.78 16.58 11.78 16.3C11.8 16.04 12.04 15.8 12.32 15.8C12.6 15.8 12.84 16.04 12.84 16.3C12.84 16.6 12.6 16.84 12.32 16.84ZM19.62 16.84C19.34 16.82 19.1 16.58 19.1 16.3C19.12 16.04 19.36 15.8 19.62 15.8C19.9 15.8 20.14 16.04 20.14 16.3C20.14 16.6 19.9 16.84 19.62 16.84Z" fill="white"/>
</svg>
